X:59
T:Denis Murphy's
R:slide
M:12/8
L:1/8
K:Dmaj
|:A2D FED F2A A2f|gfe fed e2d BdB|
A2D FED F2A A2f|a2f efe d3 d3:|
|:d2e f3 gfe f3|gfe fed e2d BdB|
d2e f3 gfe f2f|a2f efe d3 d3:|

